fa/svgs/regular/rectangle-xmark.svg

<svg xmlns="http://www.w3.org/2000/svg" viewBox="0 0 512 512"><!--! Font Awesome Free 6.1.1 by @fontawesome - https://fontawesome.com License - https://fontawesome.com/license/free (Icons: CC BY 4.0, Fonts: SIL OFL 1.1, Code: MIT License) Copyright 2022 Fonticons, Inc.--><path d="M175 175c9.4-9.3 24.6-9.3 33.1 0l47 47.1L303 175c9.4-9.3 24.6-9.3 33.1 0 10.2 9.4 10.2 24.6 0 33.1l-46.2 47 46.2 47.9c10.2 9.4 10.2 24.6 0 33.1-8.5 10.2-23.7 10.2-33.1 0l-47.9-46.2-47 46.2c-8.5 10.2-23.7 10.2-33.1 0-9.3-8.5-9.3-23.7 0-33.1l47.1-47.9-47.1-47c-9.3-8.5-9.3-23.7 0-33.1zM0 96c0-35.35 28.65-64 64-64h384c35.3 0 64 28.65 64 64v320c0 35.3-28.7 64-64 64H64c-35.35 0-64-28.7-64-64V96zm48 0v320c0 8.8 7.16 16 16 16h384c8.8 0 16-7.2 16-16V96c0-8.84-7.2-16-16-16H64c-8.84 0-16 7.16-16 16z"/></svg>

<svg xmlns="http://www.w3.org/2000/svg" viewBox="0 0 512 512"><!--! Font Awesome Free 6.2.1 by @fontawesome - https://fontawesome.com License - https://fontawesome.com/license/free (Icons: CC BY 4.0, Fonts: SIL OFL 1.1, Code: MIT License) Copyright 2022 Fonticons, Inc. --><path d="M175 175C184.4 165.7 199.6 165.7 208.1 175L255.1 222.1L303 175C312.4 165.7 327.6 165.7 336.1 175C346.3 184.4 346.3 199.6 336.1 208.1L289.9 255.1L336.1 303C346.3 312.4 346.3 327.6 336.1 336.1C327.6 346.3 312.4 346.3 303 336.1L255.1 289.9L208.1 336.1C199.6 346.3 184.4 346.3 175 336.1C165.7 327.6 165.7 312.4 175 303L222.1 255.1L175 208.1C165.7 199.6 165.7 184.4 175 175V175zM0 96C0 60.65 28.65 32 64 32H448C483.3 32 512 60.65 512 96V416C512 451.3 483.3 480 448 480H64C28.65 480 0 451.3 0 416V96zM48 96V416C48 424.8 55.16 432 64 432H448C456.8 432 464 424.8 464 416V96C464 87.16 456.8 80 448 80H64C55.16 80 48 87.16 48 96z"/></svg>
